X: 33224
T: Pub, The
R: reel
M: 4/4
K: Dmajor
dBAF DFAF|EDEF EDCA,|dBAB defa|gecA d4:|
defg afdf|afdf ecBA|1 defg afdf|afdf e4:|2 defg a3b afdf edBA||

